imgs/icon-arrow.svg

<svg width="117" height="79" viewBox="0 0 117 79" fill="none" xmlns="http://www.w3.org/2000/svg">
<path fill-rule="evenodd" clip-rule="evenodd" d="M0.806425 0.000177789C1.26106 -0.00917683 1.63719 0.351793 1.64655 0.806425C1.8461 10.5048 2.10706 19.9055 5.78705 28.8607C12.4319 45.0307 25.4135 57.0948 41.3519 64.0245C61.9987 73.0014 86.8017 74.7124 109.161 72.6162C109.614 72.5737 110.015 72.9063 110.058 73.3591C110.1 73.8118 109.768 74.2133 109.315 74.2557C86.7959 76.3669 61.6866 74.6613 40.6953 65.5347C24.4175 58.4574 11.0925 46.1037 4.26392 29.4866C0.449562 20.2045 0.198913 10.4988 0.000177789 0.840301C-0.00917683 0.385668 0.351793 0.00953234 0.806425 0.000177789Z" fill="#F67ACB"/>
<path fill-rule="evenodd" clip-rule="evenodd" d="M104.751 70.2018C104.929 69.7834 105.413 69.5884 105.831 69.7664C107.716 70.5681 109.705 71.0925 111.759 71.5118C112.788 71.7218 113.817 71.8814 114.858 71.9878C114.974 71.9996 115.12 72.0067 115.291 72.015C115.447 72.0226 115.623 72.0312 115.818 72.0454C115.96 72.0557 116.187 72.0736 116.354 72.121C116.392 72.132 116.509 72.166 116.63 72.2482C116.692 72.2903 116.811 72.3826 116.899 72.5453C117.003 72.7365 117.033 72.973 116.959 73.2016C116.895 73.3974 116.777 73.5181 116.713 73.5746C116.643 73.6355 116.578 73.6738 116.537 73.6951C116.457 73.7374 116.381 73.7629 116.334 73.7771C116.15 73.8338 115.965 73.8903 115.78 73.9468C113.381 74.6816 111 75.4107 108.69 76.2923C107.003 76.9357 105.385 77.634 104.025 78.6537C103.662 78.9265 103.146 78.8528 102.873 78.489C102.6 78.1252 102.674 77.6092 103.037 77.3363C104.593 76.1694 106.397 75.4046 108.103 74.7537C109.494 74.2229 110.908 73.7467 112.324 73.2956C112.025 73.2428 111.727 73.186 111.43 73.1253C109.322 72.6949 107.214 72.1439 105.187 71.2818C104.768 71.1038 104.573 70.6203 104.751 70.2018Z" fill="#F67ACB"/>
</svg>

<svg xmlns="http://www.w3.org/2000/svg" width="117" height="79" fill="none"><path fill="#F67ACB" fill-rule="evenodd" d="M.806 0c.455-.01.831.352.84.806.2 9.699.461 19.1 4.141 28.055 6.645 16.17 19.626 28.234 35.565 35.164C61.999 73 86.802 74.712 109.16 72.616a.824.824 0 0 1 .154 1.64c-22.52 2.11-47.628.405-68.62-8.721-16.277-7.078-29.602-19.431-36.431-36.048C.45 20.205.199 10.499 0 .84A.823.823 0 0 1 .806 0" clip-rule="evenodd"/><path fill="#F67ACB" fill-rule="evenodd" d="M104.751 70.202a.824.824 0 0 1 1.08-.436c1.885.802 3.874 1.326 5.928 1.746 1.029.21 2.058.37 3.099.476q.175.017.433.027.234.01.527.03c.142.01.369.029.536.076a1 1 0 0 1 .276.127.835.835 0 0 1 .083 1.326 1 1 0 0 1-.176.121c-.08.042-.156.068-.203.082l-.554.17c-2.399.735-4.78 1.464-7.09 2.345-1.687.644-3.305 1.342-4.665 2.362a.823.823 0 1 1-.988-1.318c1.556-1.167 3.36-1.931 5.066-2.582a80 80 0 0 1 4.221-1.458 34 34 0 0 1-.894-.17c-2.108-.431-4.216-.982-6.243-1.844a.823.823 0 0 1-.436-1.08" clip-rule="evenodd"/></svg>
